X:1
T:Unge Gjenbyrds Liv
T:Unge Gjenbyrds Liv
T:Bind 1, No. 28
T:Joseph Hartmann Stuntz
T:C. Ploug
C:J. H. Stuntz
Z:C. Ploug
%%score [ 1 2 3 4 ]
L:1/8
Q:1/4=82
M:4/4
K:D
V:1 treble-8 nm="T1"
V:2 treble-8 nm="T2"
V:3 bass nm="B1"
V:4 bass nm="B2"
V:1
!f!"^Maestoso" D3/2 F/ | A7/2 A/ A2 (B>c) | d4 A2 f3/2 e/ | d3 c d2 B2 | A4 z2 A3/2 A/ | %5
w: 1.Un- ge|Gjen- byrds Liv i _|Nor- den, Røst fra|vo- re Fæ- dres|Grav! vil du|
w: 2.Nej! du|styr- rer Ti- dens _|Slum- mer for at|vog- te paa dens|Tarv, og du|
w: 3.Un- ge|Gjen- byrds Liv i _|Nor- den, For- tids|Røst og Frem- tids|Syn! rul fra|
 .c2 .d2 .e2 .f2 | g4 e2 A3/2 A/ | !>!f7/2 d/ B2 c2 | d4 z2!mf! d3/2 f/ | e2 e2"^cresc." e2 e2 | %10
w: sty- re Ver- dens|Or- den, bry- de|Aan- dens Ba- ner|af? vil du|styr- re Ver- dens|
w: vra- ger ty- ske|Krum- mer for at|løf- te e- gen|Arv, og du|vra- ger ty- ske|
w: Læ- ber- ne som|Tor- den, tænd i|Sjæ- le- ne som|Lyn, rul fra|Læ- ber- ne som|
!<(! (e7/2!<)! a/) a4 |!>(! e7/2!>)! c/ e3/2 d/ c3/2 B/ | A4 z4 | z4 z2!p! e3/2 d/ | %14
w: Or- * den,|bry- de Aan- dens Ba- ner|af?|vil du|
w: Krum- * mer|for at løf- te e- gen|Arv.|Mens du|
w: Tor- * den,|tænd i Sjæ- le- ne som|Lyn.|Trøst de|
 .c2 .A2 .A2 (f>e) | d4 A2 e3/2 d/ | .c2 .A2 .A2 (f>e) | d4 z2!f! d3/2 c/ | B3 B B2 ^d2 | %19
w: bre- de Old- tids _|Mør- ke o- ver|Nu- tids kla- re _|Dag? vil du|væk- ke vil- den|
w: kal- der fromt til- *|ba- ge, frem du|hi- ger u- den _|Sky; mens du|min- des gam- le|
w: ban- ge, styrk de _|sva- ge, flok de|stær- ke Mand ved _|Mand! Skab en|ny, en e- vig|
 (!>!e3 f) !>!g4 |!mf!"^cresc." A7/2"^e marc." A/ B3/2 c/ d3/2 e/ | f4 z2!f! f3/2 f/ | %22
w: Styr- * ke,|For- dom, Had og Vaa- ben-|brag? vil du|
w: Da- * ge,|her- ligt var- sler du om|ny; mens du|
w: Sa- * ge|om vort skjøn- ne Fæ- dre-|land! skab en|
 .g2 .f2 .e2 .d2 | (a3 e) f4 | (f3 e) d4 | !>!A3/2 A/ A3/2 d/ f2 e2 | d4 z2 |] %27
w: væk- ke vil- den|Styr- * ke,|For- * dom,|For- dom, Had og Vaa- ben-|brag?|
w: min- des gam- le|Da- * ge,|her- * ligt,|her- ligt var- sler du om|ny.|
w: ny, en e- vig|Sa- * ge,|Sa- * ge|om vort skjøn- ne Fæ- dre-|land.|
V:2
!f! D3/2 F/ | A7/2 A/ A2 (B>c) | d4 A2 A3/2 A/ | A3 A G2 G2 | A4 z2 A3/2 A/ | .A2 .A2 .c2 .d2 | %6
w: 1.Un- ge|Gjen- byrds Liv i _|Nor- den, Røst fra|vo- re Fæ- dres|Grav! vil du|sty- re Ver- dens|
w: 2.Nej! du|styr- rer Ti- dens _|Slum- mer for at|vog- te paa dens|Tarv, og du|vra- ger ty- ske|
w: 3.Un- ge|Gjen- byrds Liv i _|Nor- den, For- tids|Røst og Frem- tids|Syn! rul fra|Læ- ber- ne som|
 e4 c2 A3/2 A/ | !>!f7/2 d/ B2 ^A2 | B4 z2!mf! d3/2 c/ | B2 ^G2"^cresc." A2 B2 |!<(! c4!<)! ^d4 | %11
w: Or- den, bry- de|Aan- dens Ba- ner|af? vil du|styr- re Ver- dens|Or- den,|
w: Krum- mer for at|løf- te e- gen|Arv, og du|vra- ger ty- ske|Krum- mer|
w: Tor- den, tænd i|Sjæ- le- ne som|Lyn, rul fra|Læ- ber- ne som|Tor- den,|
!>(! e7/2!>)! A/ c3/2 B/ A3/2 ^G/ | A4 z2!p! A3/2 A/ | .A2 .A2 .A2!p! .A2 | !>!A4 !>!A4 | %15
w: bry- de Aan- dens Ba- ner|af? vil du|bre- de Old- tids-|Mør- ke|
w: for at løf- te e- gen|Arv. Mens du|kal- der fromt til|ba- ge,|
w: tænd i Sjæ- le- ne som|Lyn. Trøst de|ban- ge, styrk de|sva- ge,|
 z2 A3/2 A/ A2 A2 | A4 A4 | A4 z2!f! d3/2 c/ | B3 B B2 B2 | (!>!B3 ^d) !>!e4 | %20
w: o- ver Nu- tids|kla- re|Dag? vil du|væk- ke vil- den|Styr- * ke,|
w: frem du hi- ger|u- den|Sky; mens du|min- des gam- le|Da- * ge,|
w: flok de stær- ke|Mand ved|Mand! Skab en|ny, en e- vig|Sa- * ge|
!mf!"^cresc." A7/2"^e marc." A/ B3/2 c/ d3/2 c/ | d2!f! A3/2 F/ d4- | .d2 .d2 .A2 .A2 | e4 d4 | %24
w: For- dom, Had og Vaa- ben-|brag? vil du væk-|* ke vil- den|Styr- ke,|
w: her- ligt var- sler du om|ny; mens du min-|* des gam- le|Da- ge,|
w: om vort skjøn- ne Fæ- dre-|land! skab en ny,|_ en e- vig|Sa- ge,|
 c4 B4 | !>!A3/2 A/ A3/2 A/ d2 c2 | A4 z2 |] %27
w: For- dom,|For- dom, Had og Vaa- ben-|brag?|
w: her- ligt,|her- ligt var- sler du om|ny.|
w: Sa- ge|om vort skjøn- ne Fæ- dre-|land.|
V:3
!f! D,3/2 F,/ | A,7/2 A,/ A,2 (B,>C) | D4 A,2 A,3/2 G,/ | F,3 A, B,2 G,2 | F,4 z2 A,3/2 A,/ | %5
w: 1.Un- ge|Gjen- byrds Liv i _|Nor- den, Røst fra|vo- re Fæ- dres|Grav! vil du|
w: 2.Nej! du|styr- rer Ti- dens _|Slum- mer for at|vog- te paa dens|Tarv, og du|
w: 3.Un- ge|Gjen- byrds Liv i _|Nor- den, For- tids|Røst og Frem- tids|Syn! rul fra|
 .A,2 .A,2 .A,2 .A,2 | A,4 A,2 A,,3/2 A,,/ | !>!F,7/2 D,/ B,,2 F,2 | F,4 z2!mf! B,3/2 A,/ | %9
w: sty- re Ver- dens|Or- den, bry- de|Aan- dens Ba- ner|af? vil du|
w: vra- ger ty- ske|Krum- mer for at|løf- te e- gen|Arv, og du|
w: Læ- ber- ne som|Tor- den, tænd i|Sjæ- le- ne som|Lyn, rul fra|
 ^G,2 E,2"^cresc." F,2 G,2 |!<(! A,4!<)! B,4 |!>(! C7/2!>)! A,/ E,3/2 E,/ E,3/2 E,/ | A,4 z4 | %13
w: styr- re Ver- dens|Or- den,|bry- de Aan- dens Ba- ner|af?|
w: vra- ger ty- ske|Krum- mer|for at løf- te e- gen|Arv.|
w: Læ- ber- ne som|Tor- den,|tænd i Sjæ- le- ne som|Lyn.|
 z4 z2!p! G,3/2 F,/ | .E,2 .G,2 .E,2 (A,>G,) | F,4 F,2 G,3/2 F,/ | .E,2 .G,2 .E,2 (A,>G,) | %17
w: vil du|bre- de Old- tids _|Mør- ke o- ver|Nu- tids kla- re _|
w: Mens du|kal- der fromt til- *|ba- ge, frem du|hi- ger u- den _|
w: Trøst de|ban- ge, styrk de _|sva- ge, flok de|stær- ke Mand ved _|
 F,4 z2!f! D,3/2 C,/ | B,,3 B,, B,2 B,2 | !>!B,4 !>!B,4 | %20
w: Dag? vil du|væk- ke vil- den|Styr- ke,|
w: Sky; mens du|min- des gam- le|Da- ge,|
w: Mand! Skab en|ny, en e- vig|Sa- ge|
!mf!"^cresc." A,7/2"^e marc." A,/ A,3/2 A,/ A,3/2 A,/ | A,4 z2!f! A,3/2 A,/ | .B,2 .A,2 .G,2 .F,2 | %23
w: For- dom, Had og Vaa- ben-|brag? vil du|væk- ke vil- den|
w: her- ligt var- sler du om|ny; mens du|min- des gam- le|
w: om vort skjøn- ne Fæ- dre-|land! skab en|ny, en e- vig|
 A,4 A,4 | ^A,4 B,4 | !>!=A,3/2 A,/ A,3/2 F,/ A,2 G,2 | F,4 z2 |] %27
w: Styr- ke,|For- dom,|For- dom, Had og Vaa- ben-|brag?|
w: Da- ge,|her- ligt,|her- ligt var- sler du om|ny.|
w: Sa- ge,|Sa- ge|om vort skjøn- ne Fæ- dre-|land.|
V:4
!f! D,3/2 F,/ | A,7/2 A,/ A,2 (B,>C) | D4 A,2 D,3/2 D,/ | D,3 D, D,2 D,2 | D,4 z2 A,3/2 A,/ | %5
w: 1.Un- ge|Gjen- byrds Liv i _|Nor- den, Røst fra|vo- re Fæ- dres|Grav! vil du|
w: 2.Nej! du|styr- rer Ti- dens _|Slum- mer for at|vog- te paa dens|Tarv, og du|
w: 3.Un- ge|Gjen- byrds Liv i _|Nor- den, For- tids|Røst og Frem- tids|Syn! rul fra|
 .G,2 .F,2 .E,2 .D,2 | A,,4 A,2 A,,3/2 A,,/ | !>!F,7/2 D,/ B,,2 F,2 | B,,4 z4 | %9
w: sty- re Ver- dens|Or- den, bry- de|Aan- dens Ba- ner|af?|
w: vra- ger ty- ske|Krum- mer for at|løf- te e- gen|Arv,|
w: Læ- ber- ne som|Tor- den, tænd i|Sjæ- le- ne som|Lyn,|
 z2 E,3/2 E,/"^cresc." E,2 E,2 |!<(! A,4!<)! F,4 |!>(! E,7/2!>)! E,/ E,3/2 E,/ E,3/2 E,/ | %12
w: styr- re Ver- dens|Or- den,|bry- de Aan- dens Ba- ner|
w: vra- ger ty- ske|Krum- mer|for at løf- te e- gen|
w: rul, ja! rul som|Tor- den,|tænd i Sjæ- le- ne som|
 A,,4 z4 | z4 z2!p! A,,3/2 A,,/ | .A,,2 .A,,2 .A,,2 .A,,2 | D,4 D,2 A,,3/2 A,,/ | %16
w: af?|vil du|bre- de Old- tids|Mør- ke o- ver|
w: Arv.|Mens du|kal- der fromt til-|ba- ge, frem du|
w: Lyn.|Trøst de|ban- ge, styrk de|sva- ge, flok de|
 .A,,2 .A,,2 .A,,2 .A,,2 | D,4 z2!f! D,3/2 C,/ | B,,3 B,, B,2 A,2 | (!>!G,3 F,) !>!E,4 | %20
w: Nu- tids kla- re|Dag? vil du|væk- ke vil- den|Styr- * ke,|
w: hi- ger u- den|Sky; mens du|min- des gam- le|Da- * ge,|
w: stær- ke Mand ved|Mand! Skab en|ny, en e- vig|Sa- * ge|
!mf!"^cresc." A,7/2"^e marc." A,/ ^G,3/2 =G,/ F,3/2 E,/ | D,4 z2!f! D,3/2 D,/ | %22
w: For- dom, Had og Vaa- ben-|brag? vil du|
w: her- ligt var- sler du om|ny; mens du|
w: om vort skjøn- ne Fæ- dre-|land! skab en|
 .D,2 .D,2 .D,2 .D,2 | C,4 D,4 | F,4 B,4 | !>!=A,3/2 A,/ F,3/2 D,/ A,2 A,,2 | D,4 z2 |] %27
w: væk- ke vil- den|Styr- ke,|For- dom,|For- dom, Had og Vaa- ben-|brag?|
w: min- des gam- le|Da- ge,|her- ligt,|her- ligt var- sler du om|ny.|
w: ny, en e- vig|Sa- ge,|Sa- ge|om vort skjøn- ne Fæ- dre-|land.|

